!!!OTL: O sine labe intensa
**kern
*staff1
=--
*clefC1
*k[]
1.f
2g
=-
1a
1a
=-
1g
1f
=-
2.g
4f
4e
4d
2e
=-
1f
1f
=-
1g
1f
=-
1b
1a
=-
!!linebreak:original
2g
2g
1g
=-
2cc
2cc
2cc
2a
=-
2cc
2b
2a
2f
=-
2cc
2cc
2cc
2a
=-
2cc
2b
2a
2f
=-
!!linebreak:original
4g
4a
4b
4g
2a
2f
=-
4g
4a
4b
4g
2a
2f
=-
2.cc
4b
2a
1g
1f
2e
=-
0f
=-=
*-
!!title: @{OTL}, @{GTL}, ed. @{ENC}
!!!pag:
!!!GTL: Hymnbook C
!!!EFL: 
!!!YEM: Creative Commons CC/BY/NC/SA 4.0
!!!ENC: Marcin Konik
!!!END: 2015-0m-dd
!!!EED: Marcin Konik
!!!EEV: 
!!!ONB: Encoded in vim by Marcin Konik
!!!CharacterEncoding: utf-8
!!!RDF**kern: l=long note in original notation
!!!RDF**kern: i=editorial accidental
!!muse2ps: z14jc180F
!!!COM: Anonim
!!!CDT: [?]
!!!TXO: Polish
!!!ODT: 
!!!GTL: Hymnbook C
!!!ARL: Opactwo św. Wojciecha, Staniątki 
!!!voices:	1
